X:20001
T:Tabhair Domh Do Lamh
T:Take My Hand
R:Air
C:Ruairi Dall O'Cathain, c. 1570-c.1650
O:Ireland
Z:Paul Hardy's Session Tunebook 2015 (see www.paulhardy.net). Creative Commons cc by-nc-sa licenced.
M:3/4
L:1/4
Q:1/4=120
K:G
D|:"C"EGG|"G"G2 D|"C"EGG|"G"G2 D|"C"EGG|"G"GAB|"Em"Bed|"G"B2 A/G/|"C"A A e/d/|"G"B B d/B/|"C"A>B A/G/|"Am7"E2 D|
"C"E G G|"G"G2 D|"C"E G G|"G"G2 D|"C"E G G|"G"G A B|"D"D>B A/B/|"G"G2 D|"C"E G G|"G"G A B|"Am7"B e d|"G"B2 A/G/|
"C"A A e/d/|"G"B B d/B/|"C"A>B d|"Am7"e2 d/B/|"G"dde|"Em"g2 e/d/|"C"eeg|"D"a2 g/e/|"C"g g d/e/|"G"g g d/e/|"C"g g a|"G"b3|
"Em"b b b|"C"b2 a/g/|"Am7"a>g a/b/|"D"a2 g/f/|"C"e e g/e/|"G"d d g/d/|"Em"BB d/B/|"D"A>c B/A/|"G"G>B d|"G7"=f2 e/d/|"C"e e g|"Am7"e2 d/B/|
"G"d d g/d/|"Em"B B d/B/|"D"A>c B/A/|1 "G"G2 D:|2 "G"G2 D|"C"EGG|"G"G2 D|"C"EGG|"G"G2 D|"C"EGG|"G"GAB|"D7"D>B A/B/|"G"G3|]

